X: 25
T: Whatsoever Ye Wyll
T: for two
C: Richard Schweitzer, CC BY-NC-SA 3.0
N: Permission granted to copy within the SCA.
N: Drone: F/C
K: F major
M: 6/8
L: 1/8
P: A
F2F A2d | c2c c3 | B2A G2B | A3 F3 | F2F A2d | c2c c3 | B2A GA2 | F6 |: \
P: B
G3 B3 | A3 F3 | 
G2A BG2 | F6 :: \
P: C
G2F G2F | G2A B3 | A2B AG2 | F6 :| \
P: D
G3 B3 | A3 F3 | G2A BG2 | F6 |] 

